X:1
T:St. Gabriel (Greatorex), CM
T:Henry Wellington Greatorex (1813-1858)
T:St. Gabriel (Greatorex), CM
T:Public Domain
C:Henry Wellington Greatorex (1813-1858)
Z:Public Domain
%%score ( 1 2 ) ( 3 4 )
L:1/8
M:3/4
K:Bb
V:1 treble 
V:2 treble 
V:3 bass 
V:4 bass 
V:1
 [DF]2 | ([DF]2 [B,D]2) ([CE][EG]) | ([DF]2 [Fd]2) [Ec]2 | ([DB]2 [FA]2) [EG]2 | [DF]4 [CE]2 | %5
 ([B,D]2 [DF]2) [FB]2 | (A2 G2) [=Ec]2 | [Fc]4 F2 | (F2 e2) [Fd]2 | (d2 c2) [FB]2 | (B2 A2) [DG]2 | %11
 (G2 F2) [CE]2 | ([B,D]2 [DF]2) [B,B]2 | ([B,B]2 [Ec]2) [EA]2 | [DB]4 |] %15
V:2
 x2 | x6 | x6 | x6 | x6 | x6 | F4 x2 | x4 F2 | F4 x2 | F4 x2 | E4 x2 | C4 x2 | x6 | x6 | x4 |] %15
V:3
 [B,,B,]2 | (B,2 F,2) [B,,A,]2 | [B,,B,]4 [B,,A,]2 | (B,2 F,2) (G,A,) | [B,,B,]4 [A,,F,]2 | %5
 (F,2 B,2) [D,B,]2 | [C,C]4 [C,B,]2 | [F,A,]4 [F,A,]2 | [F,A,]4 [F,B,]2 | (B,2 D2) [F,C]2 | %10
 [F,C]4 [F,B,]2 | [F,A,]4 [F,,A,]2 | [B,,B,]4 [D,F,]2 | (E,2 [C,G,]2) F,2 | [B,,F,]4 |] %15
V:4
 x2 | B,,4 x2 | x6 | B,,4 B,,2 | x6 | B,,4 x2 | x6 | x6 | x6 | F,4 x2 | x6 | x6 | x6 | E,2 F,2 x2 | %14
 x4 |] %15

